heraldry/heraldry_small.svg

<?xml version="1.0" encoding="UTF-8" standalone="no"?>
<svg width="29px" height="30px" viewBox="0 0 29 30" version="1.1" xmlns="http://www.w3.org/2000/svg" xmlns:xlink="http://www.w3.org/1999/xlink" xmlns:sketch="http://www.bohemiancoding.com/sketch/ns">
    <!-- Generator: Sketch 3.4 (15575) - http://www.bohemiancoding.com/sketch -->
    <title>Symbol, Version 4.2</title>
    <desc>Created with Sketch.</desc>
    <defs></defs>
    <g id="Page-1" stroke="none" stroke-width="1" fill="none" fill-rule="evenodd" sketch:type="MSPage">
        <path d="M19.84615,9.88329508 C19.3927833,9.48585246 18.7407667,9.49488525 18.3666667,9.61040984 C18.6117167,9.30947541 19.1825333,9.0627377 19.3507333,9.03278689 C19.4788167,9.08080328 19.84615,9.45827869 19.84615,9.88329508 Z M21.2937333,8.23742623 C20.9955167,6.64242623 17.2888333,7.6992623 15.4222,7.02180328 C15.3864333,7.4867541 15.9968833,8.23172131 16.58075,8.50745902 C15.5826667,9.37365574 14.6865667,11.1188852 14.5058,13.2510984 C14.3255167,11.1188852 13.4294167,9.37365574 12.4313333,8.50745902 C13.0152,8.23172131 13.6261333,7.4867541 13.5898833,7.02180328 C11.72325,7.6992623 8.01656667,6.64242623 7.71786667,8.23742623 C7.65503333,8.57496721 7.81743333,9.08936066 7.99288333,9.23721311 C8.0243,9.1302459 8.18815,8.78034426 8.70483333,8.70190164 C11.3162833,8.30731148 13.4966,12.3321311 11.5284667,13.959459 C11.4985,13.9841803 11.5154167,14.0298197 11.5560167,14.0298197 L17.45655,14.0298197 C17.4966667,14.0298197 17.5135833,13.9841803 17.4841,13.959459 C15.5154833,12.3321311 17.6958,8.30731148 20.30725,8.70190164 C20.8244167,8.78034426 20.9877833,9.1302459 21.0192,9.23721311 C21.19465,9.08936066 21.35705,8.57496721 21.2937333,8.23742623 Z M21.9288333,4.57677049 C21.88195,4.42606557 23.41315,4.4222623 23.41315,5.38068852 C23.41315,6.02296721 22.4972333,6.32722951 22.4972333,6.9937541 C22.4972333,7.30419672 22.8312167,7.53191803 22.9336833,7.53191803 C22.6978167,6.46177049 23.6731833,7.02180328 23.9366,7.22195082 C23.41315,5.78288525 24.5915167,5.79191803 24.4755167,5.13204918 C24.3948,4.67090164 23.3706167,4.81019672 22.9999,4.57677049 C22.3420833,4.16268852 21.5639167,2.55152459 21.0511,4.16268852 C22.0071333,5.05027869 21.4508167,6.35670492 20.2371667,6.35670492 C20.2371667,6.35670492 20.2304,6.54829508 20.2415167,6.5635082 C21.6891,6.49267213 22.1937,5.42870492 21.9288333,4.57677049 Z M5.0402,7.22195082 C5.30361667,7.02180328 6.27898333,6.46177049 6.0436,7.53191803 C6.14558333,7.53191803 6.47956667,7.30419672 6.47956667,6.9937541 C6.47956667,6.32722951 5.56365,6.02296721 5.56365,5.38068852 C5.56365,4.4222623 7.09485,4.42606557 7.04796667,4.57677049 C6.78358333,5.42870492 7.28818333,6.49267213 8.73576667,6.5635082 C8.7464,6.54829508 8.73963333,6.35670492 8.73963333,6.35670492 C7.52646667,6.35670492 6.97015,5.05027869 7.9257,4.16268852 C7.41288333,2.55152459 6.63471667,4.16268852 5.9769,4.57677049 C5.60618333,4.81019672 4.582,4.67090164 4.50128333,5.13204918 C4.38576667,5.79191803 5.56365,5.78288525 5.0402,7.22195082 Z M9.15046667,9.88329508 C9.60431667,9.48585246 10.2563333,9.49488525 10.62995,9.61040984 C10.3858667,9.30947541 9.81408333,9.0627377 9.64636667,9.03278689 C9.51828333,9.08080328 9.15046667,9.45827869 9.15046667,9.88329508 Z M15.19455,0.961278689 L14.4884,0.100311475 L13.78225,0.961278689 L14.4884,1.86740984 L15.19455,0.961278689 Z M19.22555,3.56462295 L18.7233667,2.95277049 L18.2216667,3.56462295 L18.7233667,4.16268852 L19.22555,3.56462295 Z M23.2986,21.2508197 L22.66205,20.5771639 L22.0255,21.2508197 L22.66205,21.8417541 L23.2986,21.2508197 Z M10.7556167,3.56462295 L10.2534333,2.95277049 L9.75173333,3.56462295 L10.2534333,4.16268852 L10.7556167,3.56462295 Z M9.31721667,6.5635082 L11.1901333,6.5635082 C12.7648333,6.5635082 13.4734,5.597 13.6875167,4.75885246 L15.2897667,4.75885246 C15.5038833,5.597 16.2119667,6.5635082 17.78715,6.5635082 L19.6600667,6.5635082 C19.6600667,6.5635082 19.9877667,6.119 20.0699333,5.89888525 C20.3657333,5.10685246 19.9877667,4.73745902 19.4362833,4.73745902 L18.7233667,5.38354098 L18.01045,4.73745902 C17.4589667,4.73745902 17.081,5.10685246 17.3768,5.89888525 C17.4145,6.00014754 17.5048833,6.14895082 17.5904333,6.27968852 C16.92585,6.18840984 16.0776,5.73344262 15.8915167,4.75885246 C15.8915167,4.75885246 16.3825833,3.97870492 16.5058333,3.66303279 C16.9485667,2.5277541 16.3830667,2.0637541 15.5560833,2.0637541 L14.4884,3.31883607 L13.4207167,2.0637541 C12.5937333,2.0637541 12.0282333,2.5277541 12.47145,3.66303279 C12.5942167,3.97870492 13.0857667,4.75885246 13.0857667,4.75885246 C12.8992,5.73344262 12.05095,6.18840984 11.3863667,6.27968852 C11.4724,6.14895082 11.5623,6.00014754 11.6,5.89888525 C11.8953167,5.10685246 11.5183167,4.73745902 10.96635,4.73745902 L10.2534333,5.38354098 L9.54051667,4.73745902 C8.98855,4.73745902 8.61155,5.10685246 8.90686667,5.89888525 C8.98903333,6.119 9.31721667,6.5635082 9.31721667,6.5635082 Z M28.681,12.3692131 C28.3194667,12.5522459 26.1986,13.5458525 23.4817833,13.1783607 C23.5103,13.0485738 23.5335,12.9178361 23.5533167,12.7870984 C25.3614667,12.5707869 26.8312833,12.2641475 27.7679833,11.7430984 C28.8356667,11.1488361 29.3025667,9.73021311 28.76365,8.67480328 C28.7496333,8.64818033 28.7109667,8.64342623 28.6916333,8.66577049 C28.3963167,9.00568852 26.53935,11.0257049 23.6137333,11.6537213 C23.606,11.5011148 23.5924667,11.3504098 23.5721667,11.2006557 C24.9931667,10.3948361 26.3803333,9.46636066 27.04105,8.61727869 C28.0396167,7.33367213 27.9477833,5.69636066 26.99755,4.86154098 C26.97725,4.84347541 26.9443833,4.84870492 26.9303667,4.87104918 C26.6297333,5.36690164 23.8157667,9.91514754 20.7263,11.8785902 C20.6953667,11.8985574 20.6538,11.9242295 20.6122333,11.9494262 C20.5237833,12.0031475 20.5141167,12.1181967 20.5895167,12.1866557 C20.9457333,12.509459 21.1671,12.9587213 21.1671,13.4574262 C21.1671,14.3245738 20.49865,15.0457705 19.6151167,15.2021803 C19.1661,15.2891803 18.51795,15.2639836 17.8954167,15.0581311 C17.8673833,15.0490984 17.8383833,15.0676393 17.8383833,15.0956885 L17.8383833,17.8421311 C17.8383833,17.8863443 17.9055667,17.8972787 17.9215167,17.8549672 C18.2999667,16.8523279 19.4329,16.6393443 19.9283167,16.6393443 C20.1066667,17.710918 20.4251833,18.5985082 20.8389167,19.0762951 C21.5126833,19.8526393 22.61275,19.8417049 23.0898,19.3049672 C23.1062333,19.2864262 23.1014,19.2574262 23.0791667,19.2450656 C22.7988333,19.0839016 21.1951333,18.0993279 20.8742,16.4857869 C21.0008333,16.4420492 21.1245667,16.3926066 21.2429833,16.3341311 C21.7606333,17.1908197 22.51415,17.9538525 23.1207333,18.2452787 C24.1396,18.734 25.0724333,18.4962951 25.4861667,17.7808033 C25.50115,17.7556066 25.4827833,17.7242295 25.4523333,17.721377 C24.8220667,17.6709836 22.8877667,17.1166557 22.0641667,15.7660164 C22.1584167,15.6794918 22.2507333,15.5891639 22.3367667,15.4931311 C23.19855,16.1491967 24.4170333,16.7291967 25.28945,16.8475738 C26.31025,16.9863934 27.4668667,16.6607377 27.4949,15.4736393 C27.4953833,15.4498689 27.4741167,15.430377 27.4489833,15.4318033 C27.086,15.4536721 24.68335,15.5582623 22.9713833,14.5755902 C23.0308333,14.462918 23.0859333,14.3478689 23.13765,14.2304426 C23.13765,14.2304426 25.72445,14.8418197 26.9501833,14.6392951 C28.1681833,14.4381967 28.8815833,13.5301639 28.7438333,12.4005902 C28.7399667,12.372541 28.7071,12.3559016 28.681,12.3692131 Z M5.83915,14.2304426 C5.89086667,14.3478689 5.94645,14.462918 6.0059,14.5755902 C4.29441667,15.5577869 1.89273333,15.4541475 1.5283,15.4318033 C1.50268333,15.430377 1.48141667,15.4508197 1.4819,15.4741148 C1.51041667,16.6607377 2.66655,16.9863934 3.68735,16.8475738 C4.55928333,16.7291967 5.77825,16.1491967 6.64003333,15.4931311 C6.72655,15.5891639 6.81838333,15.6794918 6.91263333,15.7660164 C6.08855,17.1166557 4.15473333,17.6709836 3.52446667,17.721377 C3.49401667,17.7242295 3.47613333,17.7556066 3.49063333,17.7808033 C3.90436667,18.4962951 4.8372,18.734 5.85655,18.2452787 C6.46265,17.9538525 7.21616667,17.1908197 7.73381667,16.3341311 C7.85271667,16.3926066 7.97645,16.4420492 8.1026,16.4857869 C7.78166667,18.0993279 6.17796667,19.0839016 5.89763333,19.2450656 C5.87588333,19.2574262 5.87056667,19.2864262 5.887,19.3049672 C6.36405,19.8417049 7.4646,19.8526393 8.13836667,19.0762951 C8.5521,18.5985082 8.87013333,17.710918 9.04848333,16.6393443 C9.54438333,16.6393443 10.6768333,16.8523279 11.0552833,17.8549672 C11.0717167,17.8972787 11.1389,17.8863443 11.1389,17.8421311 L11.1389,15.0956885 C11.1389,15.0676393 11.1094167,15.0490984 11.0813833,15.0581311 C10.45885,15.2639836 9.8107,15.2891803 9.36216667,15.2021803 C8.47815,15.0457705 7.8097,14.3245738 7.8097,13.4574262 C7.8097,12.9587213 8.03155,12.5089836 8.38728333,12.1861803 C8.46316667,12.1181967 8.45301667,12.0031475 8.36505,11.9494262 C8.323,11.9242295 8.28143333,11.8985574 8.25001667,11.8785902 C5.16248333,9.91609836 2.34996667,5.37118033 2.04691667,4.872 C2.0329,4.84870492 1.99906667,4.84395082 1.97828333,4.86201639 C1.0295,5.69731148 0.937183333,7.33414754 1.93575,8.61727869 C2.59646667,9.46636066 3.98363333,10.3948361 5.40415,11.2006557 C5.38433333,11.3504098 5.37031667,11.5011148 5.36306667,11.6537213 C2.43986667,11.0261803 0.58435,9.0094918 0.286133333,8.66719672 C0.266316667,8.64390164 0.226683333,8.64865574 0.21315,8.67527869 C-0.3248,9.73116393 0.1421,11.1488361 1.20881667,11.7430984 C2.14551667,12.2641475 3.61533333,12.5707869 5.42348333,12.7870984 C5.4433,12.9178361 5.4665,13.0485738 5.49501667,13.1783607 C2.7811,13.545377 0.6612,12.5541475 0.296766667,12.3696885 C0.2697,12.3559016 0.236833333,12.3730164 0.23345,12.401541 C0.0961833333,13.5311148 0.8091,14.4381967 2.0271,14.6392951 C3.25235,14.8418197 5.83915,14.2304426 5.83915,14.2304426 Z M22.66205,22.709377 L21.71955,21.9677377 C21.3435167,22.1916557 21.06705,22.5472623 20.95975,22.9641967 C20.3928,23.0435902 18.8471,22.7003443 18.9974167,22.472623 C20.6915,20.0898689 19.3956833,18.6712459 17.8383833,18.7501639 L17.8383833,20.3503934 C17.8383833,20.8643115 17.38985,21.2807705 16.8374,21.2807705 L15.7619833,21.2807705 C14.9905833,21.2807705 14.4884,22.0561639 14.4884,22.0561639 C14.4884,22.0561639 13.9862167,21.2807705 13.2148167,21.2807705 L12.1394,21.2807705 C11.5864667,21.2807705 11.1389,20.8643115 11.1389,20.3503934 L11.1389,18.7501639 C9.5816,18.6712459 8.28481667,20.0898689 9.97938333,22.472623 C10.12825,22.6979672 8.53953333,23.0588033 7.79423333,22.9675246 C7.598,22.7640492 7.31476667,22.6356885 6.9977,22.6356885 C6.85801667,22.6356885 6.7251,22.6613607 6.60281667,22.7065246 C6.60281667,22.7065246 3.6743,19.9339344 3.62065,19.9068361 L3.64481667,19.8507377 C3.81156667,19.5388689 3.55636667,19.1989508 3.39493333,19.2227213 C3.58246667,18.9978525 3.59116667,18.0132787 2.55103333,17.7855574 C2.58148333,17.9833279 2.59695,18.3869508 2.59695,18.3869508 C2.59695,18.3869508 1.79413333,17.9529016 1.39103333,18.3275246 C1.03675,18.7468361 1.5283,19.5074918 1.5283,19.5074918 C1.5283,19.5074918 1.11746667,19.5174754 0.91495,19.5003607 C1.21268333,20.5072787 2.21125,20.4359672 2.4273,20.2372459 C2.41328333,20.397459 2.77433333,20.6256557 3.08028333,20.442623 L3.21465,20.3774918 C3.23833333,20.4093443 6.09048333,23.1039672 6.09048333,23.1039672 C5.9595,23.2984098 5.89715,23.5370656 5.94016667,23.7914098 C6.00783333,24.1888525 6.33891667,24.5183115 6.76183333,24.6038852 C7.06053333,24.6637869 7.34135,24.6057869 7.56658333,24.4740984 L8.32155,25.1748525 C8.38873333,25.2357049 8.4796,25.2737377 8.5811,25.2666066 C8.76573333,25.2542459 8.90396667,25.1044918 8.88995,24.9328689 C8.88415,24.855377 8.84451667,24.7888197 8.7899,24.7384262 C8.77781667,24.7251148 8.02091667,24.022459 8.02091667,24.022459 C8.64538333,23.5846066 9.80876667,23.2760656 10.7744667,23.2760656 C10.9441167,23.2760656 11.0238667,23.1324918 10.9653833,22.9917705 C10.5279667,21.9396885 11.4685333,21.1776066 12.4414833,21.7980164 C12.86585,22.0685246 13.2969833,22.601459 13.6217833,23.4904754 C12.0253333,23.8769836 10.02095,24.9419016 9.61543333,26.1042787 C9.45931667,26.5530656 9.97503333,27.164918 10.6014333,27.2880492 C10.6251167,27.2932787 10.6478333,27.2775902 10.6521833,27.2552459 C10.9794,25.52 12.84555,24.2268852 13.8165667,24.0072459 C13.8653833,24.1379836 13.8494333,24.0956721 13.89825,24.2259344 C12.8407167,24.7260656 11.8150833,25.781 11.5221833,27.0351311 C11.3878167,27.6094262 12.0282333,28.1271475 12.557,28.2688197 C12.5835833,28.2759508 12.6096833,28.2574098 12.6111333,28.2317377 C12.7116667,26.6457705 13.4120167,25.2989344 14.0393833,24.6861311 C14.0563,24.8040328 14.06935,24.9247869 14.07805,25.0469672 C14.07805,25.0469672 13.4357,26.8368852 13.4357,28.1428361 C13.4357,28.7504098 14.3385667,29.1744754 14.4719667,29.2339016 C14.6387167,29.1744754 15.5411,28.7504098 15.5411,28.1428361 C15.5411,26.8368852 14.89875,25.0469672 14.89875,25.0469672 C14.9079333,24.9247869 14.9205,24.8040328 14.9379,24.6861311 C15.5647833,25.2989344 16.2656167,26.6452951 16.3656667,28.2312623 C16.3671167,28.2569344 16.3937,28.2759508 16.4198,28.2688197 C16.94905,28.1271475 17.5889833,27.6094262 17.4551,27.0351311 C17.1617167,25.781 16.1365667,24.7260656 15.0790333,24.2259344 C15.1273667,24.0956721 15.1114167,24.1379836 15.1602333,24.0072459 C16.1317333,24.2268852 17.9974,25.52 18.3246167,27.2552459 C18.3289667,27.2775902 18.3521667,27.2932787 18.3753667,27.2880492 C19.0012833,27.164918 19.5179667,26.5530656 19.3608833,26.1042787 C18.9563333,24.9419016 16.9514667,23.8769836 15.3550167,23.4904754 C15.6803,22.601459 16.1114333,22.0685246 16.5358,21.7980164 C17.5082667,21.1776066 18.4488333,21.9396885 18.0114167,22.9917705 C17.9529333,23.1324918 18.0322,23.2760656 18.2023333,23.2760656 C19.2946667,23.2760656 20.6402667,23.6706557 21.1729,24.1997869 C21.5131667,24.710377 22.1419833,25.0369836 22.8515167,24.9670984 C23.6577167,24.8881803 24.31505,24.2825082 24.4059167,23.5337377 C24.4851833,22.8776721 24.1458833,22.2886393 23.6050333,21.9677377 L22.66205,22.709377 Z M15.7151,17.930082 C16.0510167,17.8055246 16.5773667,17.9063115 16.5594833,18.3912295 C16.5551333,18.5010492 16.7093167,18.5010492 16.7204333,18.3888525 C16.8209667,17.6629016 16.3303833,17.4537213 15.8170833,17.5388197 C15.7532833,17.2892295 15.7010833,17.0710164 15.6416333,16.8547049 C15.5942667,16.6797541 15.5768667,16.3512459 15.7793833,16.3512459 C15.8886167,16.3512459 15.8446333,16.6569344 15.8344833,16.788623 C15.8253,16.9041475 15.8668667,16.9740328 15.9606333,16.9773607 C16.0191167,16.9797377 16.0921,16.9050984 16.1356,16.8556557 C16.4294667,16.5233443 16.4976167,16.0089508 16.1534833,15.7607869 C15.8654167,15.5525574 15.1442833,15.707541 14.9461167,16.0041967 C14.91615,15.8924754 14.7730833,15.7080164 14.70445,15.6276721 C14.63775,15.5492295 14.62035,15.4955082 14.7126667,15.4265738 C14.7561667,15.3932951 14.8876333,15.2625574 14.8876333,15.127541 C14.8876333,15.0476721 14.8257667,14.9002951 14.62905,14.9002951 C14.4739,14.9002951 14.30135,15.0077377 14.30135,15.2473443 C14.30135,15.3005902 14.3144,15.3576393 14.3487167,15.4189672 C14.2506,15.4028033 13.9842833,15.409459 13.8475,15.4432131 L15.7387833,20.6332623 C16.2801167,20.366082 16.6769333,19.9429672 16.6769333,19.4889508 C16.6769333,19.1019672 16.1070833,19.2303279 15.8301333,19.5322131 C15.7412,19.0415902 15.6619333,18.5885246 15.5754167,18.1368852 C15.5517333,18.0123279 15.61505,17.9676393 15.7151,17.930082 Z M13.0408167,14.4044426 L13.4381167,15.5083443 C13.09785,15.5891639 12.5507167,15.8373279 12.5507167,16.1658361 C12.5507167,16.6032131 13.3245333,16.8879836 13.7721,16.8537541 C13.7498667,16.9535902 13.7754833,17.0424918 13.8450833,17.1237869 C13.6826833,17.1237869 13.37625,17.199377 13.2757167,17.3077705 C13.0384,17.0867049 12.6672,17.0063607 12.4907833,17.1409016 C12.3134,17.2763934 12.3080833,17.5060164 12.4932,17.7655902 C12.62225,17.9452951 12.6705833,18.122623 12.5255833,18.3308525 C13.0649833,18.3308525 12.8663333,17.629623 13.07755,17.629623 C13.05,17.7655902 13.0669167,17.9229508 13.1283,18.0974262 C13.1689,18.2134262 13.1689,18.2956721 13.0993,18.4073934 C12.9253,18.6855082 12.6546333,19.324459 12.6913667,19.902082 C12.5144667,19.9011311 12.4245667,19.8578689 12.4869167,19.6163607 C12.5101167,19.5265082 12.4545333,19.4623279 12.3810667,19.5730984 C12.2998667,19.6952787 12.2607167,19.9039836 12.2607167,19.9933607 C12.2607167,20.5077541 12.8735833,20.6113934 13.1075167,20.5025246 C13.7841833,21.1573633 15.11335,20.9826885 15.5585,20.7630492 L13.2182,14.3416885 C13.17035,14.220459 12.9987667,14.278459 13.0408167,14.4044426 Z M12.9596167,19.6938525 C12.9112833,19.4295246 13.2791,18.9569672 13.7469667,18.5010492 C13.6474,18.7981803 13.7092667,19.3101967 13.9045333,19.4865738 C13.5652333,19.4865738 13.1621333,19.5502787 12.9596167,19.6938525 L12.9596167,19.6938525 Z" id="Symbol,-Version-4.2" fill="#000000" sketch:type="MSShapeGroup"></path>
    </g>
</svg>

<svg width="29" height="30" viewBox="0 0 29 30" xmlns="http://www.w3.org/2000/svg">
  <path d="M19.846 9.883c-.453-.397-1.105-.388-1.48-.273.246-.3.817-.547.985-.577.128.048.495.425.495.85zm1.448-1.646c-.298-1.595-4.005-.538-5.872-1.215-.036.465.575 1.21 1.159 1.485-.998.867-1.894 2.612-2.075 4.744-.18-2.132-1.077-3.877-2.075-4.744.584-.275 1.195-1.02 1.159-1.485-1.867.677-5.573-.38-5.872 1.215-.063.338.1.852.275 1 .031-.107.195-.457.712-.535 2.611-.395 4.792 3.63 2.823 5.257-.03.025-.013.07.028.07h5.9c.04 0 .058-.045.028-.07-1.969-1.627.212-5.652 2.823-5.257.517.078.68.428.712.535.176-.148.338-.662.275-1zm.635-3.66c-.047-.15 1.484-.155 1.484.804 0 .642-.916.946-.916 1.613 0 .31.334.538.437.538-.236-1.07.74-.51 1.003-.31-.524-1.44.655-1.43.539-2.09-.081-.461-1.105-.322-1.476-.555-.658-.414-1.436-2.025-1.949-.414.956.887.4 2.194-.814 2.194 0 0-.007.191.005.207 1.447-.071 1.952-1.135 1.687-1.987zM5.04 7.222c.264-.2 1.239-.76 1.004.31.102 0 .436-.228.436-.538 0-.667-.916-.971-.916-1.613 0-.959 1.53-.955 1.484-.804-.264.852.24 1.916 1.688 1.987.01-.016.004-.207.004-.207-1.214 0-1.77-1.307-.814-2.194-.513-1.611-1.291 0-1.95.414-.37.233-1.394.094-1.475.555-.115.66 1.063.65.54 2.09zm4.11 2.661c.454-.397 1.106-.388 1.48-.273-.244-.3-.816-.547-.984-.577-.128.048-.496.425-.496.85zM15.195.961l-.707-.86-.706.86.706.906.707-.906zm4.03 2.604l-.502-.612-.501.612.501.598.503-.598zM23.3 21.25l-.637-.674-.636.674.636.59.637-.59zM10.756 3.565l-.503-.612-.501.612.501.598.503-.598zM9.317 6.564h1.873c1.575 0 2.283-.967 2.498-1.805h1.602c.214.838.922 1.805 2.497 1.805h1.873s.328-.445.41-.665c.296-.792-.082-1.162-.634-1.162l-.713.647-.713-.647c-.551 0-.929.37-.633 1.162.038.101.128.25.213.38-.664-.09-1.512-.546-1.698-1.52 0 0 .49-.78.614-1.096.443-1.135-.123-1.6-.95-1.6L14.488 3.32l-1.067-1.255c-.827 0-1.393.464-.95 1.599.123.316.615 1.096.615 1.096-.187.974-1.035 1.43-1.7 1.52.086-.13.176-.279.214-.38.295-.792-.082-1.162-.634-1.162l-.713.647-.712-.647c-.552 0-.93.37-.634 1.162.082.22.41.665.41.665zm19.364 5.805c-.362.183-2.482 1.177-5.2.81.03-.13.052-.261.072-.392 1.808-.216 3.278-.523 4.215-1.044 1.068-.594 1.535-2.013.996-3.068-.014-.027-.053-.032-.072-.01-.296.34-2.153 2.36-5.078 2.989a5.404 5.404 0 0 0-.042-.453c1.421-.806 2.808-1.735 3.469-2.584.999-1.283.907-2.92-.043-3.755a.045.045 0 0 0-.068.009c-.3.496-3.114 5.044-6.204 7.008-.03.02-.072.045-.114.07a.146.146 0 0 0-.022.238c.356.322.577.772.577 1.27 0 .868-.668 1.589-1.552 1.745-.449.087-1.097.062-1.72-.144-.028-.009-.057.01-.057.038v2.746c0 .044.068.055.084.013.378-1.003 1.51-1.216 2.006-1.216.179 1.072.497 1.96.91 2.437.675.777 1.775.766 2.252.229a.039.039 0 0 0-.01-.06c-.281-.161-1.885-1.146-2.206-2.76.127-.043.25-.092.369-.15.518.856 1.271 1.619 1.878 1.91 1.019.489 1.951.251 2.365-.464.015-.025-.003-.057-.034-.06-.63-.05-2.564-.604-3.388-1.955a3.96 3.96 0 0 0 .273-.273c.862.656 2.08 1.236 2.952 1.355 1.021.138 2.178-.187 2.206-1.374 0-.024-.02-.044-.046-.042-.363.022-2.766.126-4.478-.856a5.42 5.42 0 0 0 .167-.346s2.586.612 3.812.41c1.218-.202 1.932-1.11 1.794-2.24-.004-.027-.037-.044-.063-.03zM5.839 14.23c.052.118.107.233.167.346-1.712.982-4.113.878-4.478.856-.025-.002-.047.019-.046.042.028 1.187 1.185 1.512 2.205 1.374.872-.119 2.091-.699 2.953-1.355.087.096.178.186.273.273-.824 1.35-2.758 1.905-3.389 1.955-.03.003-.048.035-.033.06.413.715 1.346.953 2.366.464.606-.291 1.36-1.054 1.877-1.91.119.058.242.107.369.15-.321 1.614-1.925 2.599-2.205 2.76a.04.04 0 0 0-.011.06c.477.537 1.578.548 2.251-.229.414-.477.732-1.365.91-2.437.496 0 1.629.213 2.007 1.216.017.042.084.031.084-.013v-2.746c0-.028-.03-.047-.058-.038-.622.206-1.27.231-1.719.144-.884-.156-1.552-.877-1.552-1.745 0-.498.222-.948.577-1.27a.145.145 0 0 0-.022-.238 5.396 5.396 0 0 1-.115-.07C5.162 9.916 2.35 5.37 2.047 4.872a.046.046 0 0 0-.069-.01c-.948.835-1.04 2.472-.042 3.755.66.85 2.048 1.778 3.468 2.584-.02.15-.034.3-.04.453C2.44 11.026.583 9.009.285 8.667c-.02-.023-.06-.018-.073.008-.538 1.056-.07 2.474.996 3.068.937.521 2.406.828 4.214 1.044.02.13.043.262.072.391-2.714.367-4.834-.624-5.198-.808-.027-.014-.06.003-.064.032-.137 1.13.576 2.036 1.794 2.237 1.225.203 3.812-.409 3.812-.409zm16.823 8.48l-.942-.742c-.376.224-.653.58-.76.996-.567.08-2.113-.264-1.963-.491 1.695-2.383.399-3.802-1.159-3.723v1.6c0 .514-.448.93-1 .93h-1.076c-.771 0-1.274.776-1.274.776s-.502-.775-1.273-.775h-1.076c-.553 0-1-.417-1-.93v-1.6c-1.557-.08-2.854 1.339-1.16 3.722.15.225-1.44.586-2.185.495a1.102 1.102 0 0 0-.796-.332c-.14 0-.273.025-.395.07 0 0-2.929-2.772-2.982-2.8l.024-.055c.167-.312-.089-.652-.25-.628.187-.225.196-1.21-.844-1.437.03.197.046.601.046.601s-.803-.434-1.206-.06c-.354.42.137 1.18.137 1.18s-.41.01-.613-.007c.298 1.007 1.296.936 1.512.737-.014.16.347.389.653.206l.135-.066c.023.032 2.875 2.727 2.875 2.727a.937.937 0 0 0-.15.687c.068.398.399.727.822.813.299.06.58.002.805-.13l.755.7c.067.062.158.1.26.093.184-.013.322-.163.308-.334a.296.296 0 0 0-.1-.195c-.012-.013-.77-.716-.77-.716.625-.437 1.789-.746 2.754-.746.17 0 .25-.144.191-.284-.437-1.052.504-1.814 1.476-1.194.425.27.856.803 1.18 1.692-1.596.387-3.6 1.452-4.006 2.614-.156.45.36 1.06.986 1.184a.042.042 0 0 0 .051-.033c.327-1.735 2.194-3.028 3.165-3.248l.081.219c-1.057.5-2.083 1.555-2.376 2.81-.134.573.506 1.091 1.035 1.233.027.007.053-.012.054-.037.1-1.586.801-2.933 1.428-3.546.017.118.03.239.039.361 0 0-.642 1.79-.642 3.096 0 .607.903 1.031 1.036 1.09.167-.059 1.07-.483 1.07-1.09 0-1.306-.643-3.096-.643-3.096a5.09 5.09 0 0 1 .039-.36c.627.612 1.328 1.958 1.428 3.544a.043.043 0 0 0 .054.038c.529-.142 1.169-.66 1.035-1.234-.293-1.254-1.318-2.309-2.376-2.81l.081-.218c.972.22 2.837 1.513 3.165 3.248a.043.043 0 0 0 .05.033c.626-.123 1.143-.735.986-1.184-.405-1.162-2.41-2.227-4.006-2.614.325-.889.756-1.421 1.18-1.692.973-.62 1.914.142 1.476 1.194-.058.14.021.284.191.284 1.093 0 2.438.395 2.97.924.341.51.97.837 1.68.767.806-.079 1.463-.684 1.554-1.433.08-.656-.26-1.245-.801-1.566l-.943.741zm-6.947-4.78c.336-.124.862-.024.844.461-.004.11.15.11.161-.002.101-.726-.39-.935-.903-.85-.064-.25-.116-.468-.175-.684-.048-.175-.065-.504.137-.504.11 0 .066.306.055.438-.009.115.033.185.127.188.058.003.131-.072.175-.121.293-.333.362-.847.017-1.095-.288-.208-1.009-.053-1.207.243-.03-.112-.173-.296-.242-.376-.066-.079-.084-.132.009-.201.043-.034.175-.164.175-.3 0-.08-.062-.227-.259-.227-.155 0-.328.108-.328.347 0 .054.013.11.048.172a1.751 1.751 0 0 0-.502.024l1.892 5.19c.541-.267.938-.69.938-1.144 0-.387-.57-.259-.847.043-.089-.49-.168-.943-.255-1.395-.023-.125.04-.17.14-.207zm-2.674-3.526l.397 1.104c-.34.081-.887.33-.887.658 0 .437.774.722 1.221.688-.022.1.003.188.073.27-.162 0-.469.075-.57.184-.237-.221-.608-.302-.784-.167-.178.135-.183.365.002.625.13.18.178.357.033.565.539 0 .34-.701.552-.701a.887.887 0 0 0 .05.467c.04.116.04.199-.029.31-.174.279-.444.917-.408 1.495-.177 0-.266-.044-.204-.286.023-.09-.032-.154-.106-.043a.928.928 0 0 0-.12.42c0 .515.613.618.847.51.676.654 2.005.48 2.45.26l-2.34-6.421c-.048-.122-.22-.064-.177.062zm-.081 5.29c-.049-.264.32-.737.787-1.193-.1.297-.038.81.158.986-.34 0-.743.063-.945.207z" fill="#000" fill-rule="evenodd"/>
</svg>
